X:1
T:Jesu nostra redemptio - Victoria
T:#
%%score [ 1 2 3 4 ]
L:1/8
Q:1/4=130
M:none
K:C
V:1 treble nm="S" snm="S"
V:2 treble nm="A" snm="A"
V:3 treble-8 nm="T" snm="T"
V:4 treble nm="B" snm="B"
V:1
 z30 | z28 || z20 | z24 ||[K:Eb][K:treble][Q:1/4=200][Q:1/4=200][Q:1/4=200][Q:1/4=200] z16 | z16 | %6
w: ||||||
 z16 | z16 | z8 A8- | A8 G8 | A8 B8 | (c12 B4) | (A4 G8) F4 | G16- | G16 | G16 | z16 | B16 | (c16 | %19
w: ||Quae|* te|vi- cit|cle\- *|men\- * ti-|a||||Ut|fer\-|
 e12) d4 | c8 B8 | (A8 G4 F4 | G8) F8 | E16- | E16 | z16 | z8 z4 F4 | F4 E4 (F6 G2 | %28
w: * res|no- stra|cri\- * *|* mi-|na:|||Cru-|de- lem mor\- *|
 A4) G4 (A4 B4 | A8) G8 | F8 z8 | z4 B4 c8- | c4[Q:1/4=199] B4[Q:1/4=196] A8 | %33
w: * tem pa\- *|* ti-|ens,|Ut nos|* a mor-|
[Q:1/4=192] (G6[Q:1/4=191] A2[Q:1/4=189] B4)[Q:1/4=187] (A4- | %34
w: te * * tol\-|
[Q:1/4=186] A2[Q:1/4=185] G2[Q:1/4=183] G8)[Q:1/4=180] F4 |[Q:1/4=180] G24 || %36
w: * * * le-|res.|
[Q:1/4=130][Q:1/4=130][Q:1/4=130][Q:1/4=130] z30 | z28 || z20 | z24 || %40
w: ||||
[Q:1/4=200][Q:1/4=200][Q:1/4=200][Q:1/4=200] A12 G4 | A4 B4 G4 (E2 F2 | G2 A2 B8 =A4 | B8 c6 B2 | %44
w: I- psa|te co- gat pi- *|||
 c2 d2 e8) d4 | (e2 d2 c2 B2 c8) | z16 | z4 e8 d4 | e4 f4 d4 (e4- | e4 d4 c6 d2 | e4 d2 c2 d4) d4 | %51
w: * * * e-|tas, * * * *||i- psa|te co- gat pi\-||* * * * e-|
 c8 z4 B4 | c4 d4 e8- | e4 d4 (c8- | c4 B2 A2 B2 G2 c4- | c4) =B4 c4 e4 | e4 d4 c8- | %57
w: tas, Ut|ma- la no\-|* stra su\-||* pe- res, ut|ma- la no\-|
 c4 B4 (c6 A2 | B8 A8 | G16 | z8 z4 c4 | c4 =B4 c8 | d8 e8- | e4 d4 c6 B2 | A2 F2 B8) A4 | %65
w: * stra su\- *|* pe-|res:|Par-|cen- do vo-|ti com\-||* * * po-|
 G8 z4 G4 | B4 c4 d8 | e4 (c6 B2 B4- | B4) A4 G4 B4 | c12 B4 | A8 G4 (G4- | G4 F2 E2 F4) F4 | %72
w: tes, par-|cen- do vo-|ti com\- * *|* po- tes Nos|tu- o|vul- tu sa\-|* * * * ti-|
 G16- | G8 z4[Q:1/4=199] d4 |[Q:1/4=196] e12[Q:1/4=193] d4 | %75
w: es,|* nos|tu- o|
[Q:1/4=192] c4[Q:1/4=191] G4[Q:1/4=189] c8- |[Q:1/4=187] c4[Q:1/4=185] =B4[Q:1/4=182] B16 || %77
w: vul- tu sa\-|* ti- es.|
[Q:1/4=130][Q:1/4=130][Q:1/4=130][Q:1/4=130] z30 | z28 || z20 | z24 |] %81
w: ||||
V:2
 z30 | z28 || z20 | z24 ||[K:Eb][K:treble] z16 | z16 | z16 | E8 D4 E4 | F4 G4 (F4 E2 D2 | %9
w: |||||||Quae te vi-|cit cle- men\- * *|
 E2 C2 F8) =E4 | F4 A4 F4 G4 | A4 E4 (A4 G2 F2 | E12) C4 | D16 | z4 B,4 D4 D4 | (E6 D2 C4) B,4 | %16
w: * * * ti-|a, quae te vi-|cit cle- men\- * *|* ti-|a|Ut fer- res|no\- * * stra|
 (C2 D2 E2 F2 G2 E2 A4- | A4 G4 G8 | z4 E4 (F2 G2 A4- | A4) G4 F8 | E4 G6 F2 E2 D2 | %21
w: cri\- * * * * * *|* mi- na|ut fer\- * *|* res no-|stra cri\- * * *|
 C6 D2 E2 D2 F4- | F2 E2 E8) D4 | E16 | z16 | z8 F8 | F4 E4 (F6 G2 | A4) G4 (A6 G2 | %28
w: |* * * mi-|na:||Cru-|de- lem mor\- *|* tem pa\- *|
 F4 E2 D2 E2 F2 G4- | G4 F4 G4) E4 | B,8 z4 E4 | F4 D4 (E4 D2 C2 | D4 E4 F8) | D4 (G8 F4 | %34
w: |* * * ti-|ens, Ut|nos a mor\- * *||te tol\- *|
 E4 D6 C2 C4- | C4) (=B,2 =A,2) B,16 || z30 | z28 || z20 | z24 || z16 | z8 E8- | E4 D4 E4 F4 | %43
w: |* le\- * res.||||||I\-|* psa te co-|
 D4 (E6 C2 F4 | E2 F2 G2 E2 F4) F4 | E8 z4 E4 | C4 C4 E4 D4 | (C2 D2 E2 F2 G4 F4 | A8 G8- | %49
w: gat pi\- * *|* * * * * e-|tas. i-|psa te co- gat|pi\- * * * * *||
 G4 F2 E2 F4) F4 | G16 | z4 E4 F4 G4 | A12 G4 | (F6 G2 A4) A4 | G8 z8 | z8 z4 E4 | F4 G4 A4 E4 | %57
w: * * * * e-|tas,|Ut ma- la|no- stra|su\- * * pe-|res,|ut|ma- la no- stra|
 (F4 G4 E4 F4- | F2 E2 E8) D4 | E8 z4 C4 | C4 =B,4 (C6 D2 | E4) D4 (E4 C4- | C2 B,2 B,8) =A,4 | %63
w: su\- * * *|* * * pe-|res: Par-|cen- do vo\- *|* ti com\- *|* * * po-|
 B,8 z4 F4 | F4 =E4 F4 C4 | (E4 D2 C2 =B,6 C2 | D4 E4 D8) | C8 D8 | z4 F4 G8- | G4 F4 E4 D4 | %70
w: tes, par-|cen- do vo- ti|com\- * * * *||po- tes|Nos tu\-|* o vul- tu|
 (F8 E4 D4 | C12) C4 | D8 z4 D4 | E12 D4 | C12 =B,4 | (C2 D2 E2 F2 G4) E4 | D24 || z30 | z28 || %79
w: sa\- * *|* ti-|es, nos|tu- o|vul- tu|sa\- * * * * ti-|es.|||
 z20 | z24 |] %81
w: ||
V:3
[K:Eb]"^Iesu nostra redemptio""^Tomas Luis deVictoria\n(1548-1611)" A2 (G2 A2 B2 c2) B2 (A2 F2) A2 (G2 A2 B2) A2 G4 | %1
w: Ie- su * * * no- stra * re- de\- * * mpti- o|
 B2 (c2 e2) c2 (c2 B2 A2) B2 B2 A2- (G2 F2 E4) || F2 F2 E2 F2 (A2 F2) G2 G2 G4 | %3
w: A- mor * et de\- * * si- de- ri- um: * *|De- us Cre- a- tor * o- mni- um|
 B2 c2 B2 (A2 F2) A2 (G2 A2 B2) A2 G4 || z8 e8 | d4 e4 f4 g4 | (f6 e2 f4 g4- | g2 f2 g2 e2 f4) g4 | %8
w: Ho- mo in fi\- * ne tem\- * * po- rum.|Quae|te vi- cit cle-|men\- * * *|* * * * * ti-|
 (f4 e2 d2 c8- | c8) z8 | z4 f4 d4 e4 | A4 (c6 A2 B4) | (c4 B4 c8- | c4) =B4 (B6 c2 | d8) z4 B4 | %15
w: a * * *||quae te vi-|cit cle\- * *|men- * *|* ti- a *|* Ut|
 (c6 d2 e4) d4 | (e6 d2 c4) A4 | (e12 d4 | c8) A8 | B16 | z4 E4 G4 G4 | A4 F4 B8- | B8 B8 | %23
w: fer\- * * res|no\- * * stra|cri\- *|* mi-|na|ut fer- res|no- stra cri\-|* mi-|
 B8 z4 c4 | c4 B4 (c6 d2 | e12) d4 | (c4 B4 c8- | c4) c4 c8 | z4 c4 c4 B4 | (c4 d4 e8- | e4 d4 e8 | %31
w: na: Cru-|de- lem mor\- *|* tem|pa\- * *|* ti- ens,|cru- de- lem|mor\- * *|* tem pa-|
 d8 c8 | z4 B4 c8- | c4 B4 G4 A4 | B8 c8 | d24 || A2 G2 A2 B2 c2) B2 (A2 F2) A2 (G2 A2 B2) A2 G4 | %37
w: ti- ens,|Ut nos|* a mor- te|tol- le-|res.|In- fer\- * * * ni clau\- * stra pe\- * * ne- trans|
 B2 (c2 e2) c2 (c2 B2 A2) B2 B2 A2- (G2 F2 E4) || F2 F2 E2 F2 (A2 F2) G2 G2 G4 | %39
w: Tu- os * cap- ti\- * * vos re- di- mens: * *|Vi- ctor tri- um- pho * no- bi- li|
 B2 c2 B2 (A2 F2) A2 (G2 A2 B2) A2 G4 || z16 | z16 | z16 | z16 | z16 | z8 A8- | A8 G8 | A8 B8 | %48
w: Ad dex- tram Pa\- * tris re\- * * si- dens.||||||I\-|* psa|te co-|
 c8 B8- | B8 A8 | G16 | z16 | z8 B8- | B8 (c8 | e12) e4 | d8 c8 | (B8 A8- | A4 G4 A8 | G8 F8 | %59
w: gat pi\-|* e-|tas,||Ut|* ma\-|* la|no- stra|su\- *||* pe-|
 E8 z8 | z16 | z8 z4 F4 | F8 E8 | (F6 G2 A8- | A4 G4 F8 | G12) G4 | G16 | z8 z4 B4 | c12 B4 | %69
w: res:||Par-|cen- do|vo\- * *|* ti com\-|* po-|tes|Nos|tu- o|
 A8 G8 | F8 G8 | A12) A4 | G16- | G16 | G16 | G16 | G24 || %77
w: vul- tu|sa\- *|* ti-|es.|||||
 A2 (G2 A2 B2 c2) B2 (A2 F2) A2 (G2 A2 B2) A2 G4 | B2 (c2 e2) c2 (c2 B2 A2) B2 B2 A2- (G2 F2 E4) || %79
w: Tu e\- * * * sto no\- * strum gau\- * * di- um|Qui es * fu- tu\- * * rus prae- mi- um: * *|
 F2 F2 E2 F2 (A2 F2) G2 G2 G4 | B2 c2 B2 (A2 F2) A2 (G2 A2 B2) A2 G4 |] %81
w: Sit no- stra in te * glo- ri- a|Per cun- cta sem\- * per sae\- * * cu- la.|
V:4
 z30 | z28 || z20 | z24 ||[K:Eb][K:bass] A,8 G,4 A,4 | B,4 C4 (B,6 G,2 | =A,4 B,6 _A,2 G,2 F,2 | %7
w: ||||Quae te vi-|cit cle- men\- *||
 E,4) E,4 B,,4 E,4 | D,4 E,4 (F,2 G,2 A,2 B,2 | C4) A,4 B,4 C4 | F,8 z8 | z4 A,4 F,4 G,4 | %12
w: * ti- a, quae|te vi- cit * * *|* cle- men- ti-|a|quae te vi-|
 A,4 E,4 A,4 A,4 | G,16- | G,16 | z16 | z16 | z4 E,4 G,4 G,4 | A,6 G,2 F,4 F,4 | E,8 z4 B,,4 | %20
w: cit cle- men- ti-|a||||Ut fer- res|no- stra cri- mi-|na, ut|
 (C,6 D,2 E,4) E,4 | (F,2 G,2 A,2 F,2 G,4) D,4 | E,8 B,,8 | E,8 z4 A,4 | A,4 G,4 (A,2 G,2 A,2 B,2 | %25
w: fer\- * * res|no\- * * * * stra|cri- mi-|na: Cru-|de- lem mor\- * * *|
 C4) A,4 (B,8 | A,4 G,4 F,8) | C,8 F,8 | z16 | z16 | z4 B,4 C8 | B,8 A,8 | G,8 (F,8 | G,8 E,4 F,4 | %34
w: * tem pa\-||ti- ens,|||Ut nos|a mor-|te tol\-||
 G,8) A,8 | G,24 || z30 | z28 || z20 | z24 || z16 | z16 | z16 | z8 A,8- | A,4 G,4 A,4 B,4 | %45
w: * le-|res.||||||||I\-|* psa te co-|
 G,4 (A,6 B,2 C2 D2 | E4 C8) =B,4 | C8 z4 B,4 | A,4 F,4 G,4 E,4 | (G,2 A,2 B,2 G,2 A,2 B,2 C4- | %50
w: gat pi\- * * *|* * e-|tas, i-|psa te co- gat|pi\- * * * * * *|
 C4 =B,2 =A,2 B,4) B,4 | C4 A,4 A,4 G,4 | F,8 E,8 | (B,,8 F,6 E,2 | C,2 D,2 E,2 F,2 G,4 A,4 | %55
w: * * * * e-|tas, Ut ma- la|no- stra|su\- * *||
 F,4) G,4 C,8 | z16 | z16 | z16 | z4 G,4 G,4 E,4 | F,4 G,4 (A,8 | G,6 F,2 E,4 F,4 | %62
w: * pe- res:||||Par- cen- do|vo- ti com\-||
 D,4 B,,4 C,4) C,4 | (B,,2 C,2 D,2 E,2 F,8) | z8 z4 C4 | C4 =B,4 D4 E4 | (D4 C6 B,2 B,4- | %67
w: * * * po-|tes, * * * *|par-|cen- do vo- ti|com\- * * *|
 B,4 =A,4 B,4 G,4) | F,8 E,8 | z8 z4 B,4 | C12 B,4 | A,4 F,4 (C8- | C4 =B,2 =A,2 B,6 _A,2 | %73
w: |po- tes|Nos|tu- o|vul- tu sa\-||
 G,2 F,2 E,2 D,2 C,4 =B,,4 | C,2 D,2 E,2 F,2 G,8 | C,12) C,4 | G,24 || z30 | z28 || z20 | z24 |] %81
w: ||* ti-|es.|||||

